www/assets/images/src/icon_grading_alert.svg

<svg fill="none" height="43" viewBox="0 0 42 43" width="42" xmlns="http://www.w3.org/2000/svg"><path d="m27.524 39.4167h-13.048c-.4641-.0002-.9091-.189-1.2372-.525l-9.22605-9.4457c-.32819-.3359-.51262-.7915-.51275-1.2667v-13.3586c.00013-.4752.18456-.9308.51275-1.2667l9.22605-9.44571c.3281-.336.7731-.52483 1.2372-.52496h13.048c.4641.00013.9091.18896 1.2372.52496l9.2261 9.44571c.3281.3359.5126.7915.5127 1.2667v13.3586c-.0001.4752-.1846.9308-.5127 1.2667l-9.2261 9.4457c-.3281.336-.7731.5248-1.2372.525z" fill="#d26222"/><g fill="#fff"><path d="m21 30.4583c.9665 0 1.75-.8021 1.75-1.7916s-.7835-1.7917-1.75-1.7917-1.75.8022-1.75 1.7917.7835 1.7916 1.75 1.7916z"/><path d="m21 23.2917c-.4641 0-.9092-.1888-1.2374-.5248s-.5126-.7917-.5126-1.2669v-7.1667c0-.4751.1844-.9309.5126-1.2669s.7733-.5247 1.2374-.5247.9092.1887 1.2374.5247.5126.7918.5126 1.2669v7.1667c0 .4752-.1844.9309-.5126 1.2669s-.7733.5248-1.2374.5248z"/></g></svg>

<svg width="42" height="43" viewBox="0 0 42 43" fill="none" xmlns="http://www.w3.org/2000/svg">
<path d="M27.524 39.4167H14.476C14.0119 39.4165 13.5669 39.2277 13.2388 38.8917L4.01275 29.446C3.68456 29.1101 3.50013 28.6545 3.5 28.1793V14.8207C3.50013 14.3455 3.68456 13.8899 4.01275 13.554L13.2388 4.10829C13.5669 3.77229 14.0119 3.58346 14.476 3.58333H27.524C27.9881 3.58346 28.4331 3.77229 28.7612 4.10829L37.9873 13.554C38.3154 13.8899 38.4999 14.3455 38.5 14.8207V28.1793C38.4999 28.6545 38.3154 29.1101 37.9873 29.446L28.7612 38.8917C28.4331 39.2277 27.9881 39.4165 27.524 39.4167Z" fill="#D26222"/>
<path d="M21 30.4583C21.9665 30.4583 22.75 29.6562 22.75 28.6667C22.75 27.6772 21.9665 26.875 21 26.875C20.0335 26.875 19.25 27.6772 19.25 28.6667C19.25 29.6562 20.0335 30.4583 21 30.4583Z" fill="white"/>
<path d="M21 23.2917C20.5359 23.2917 20.0908 23.1029 19.7626 22.7669C19.4344 22.4309 19.25 21.9752 19.25 21.5V14.3333C19.25 13.8582 19.4344 13.4024 19.7626 13.0664C20.0908 12.7304 20.5359 12.5417 21 12.5417C21.4641 12.5417 21.9092 12.7304 22.2374 13.0664C22.5656 13.4024 22.75 13.8582 22.75 14.3333V21.5C22.75 21.9752 22.5656 22.4309 22.2374 22.7669C21.9092 23.1029 21.4641 23.2917 21 23.2917Z" fill="white"/>
</svg>
